assets/Foot/Dark/Flat/foot_flat_dark.svg

<svg width="32" height="32" viewBox="0 0 32 32" fill="none" xmlns="http://www.w3.org/2000/svg">
<path d="M29.7475 24.7238C29.1294 21.9927 28.2855 21.998 28.0781 18.3594C27.8707 14.7208 27.4062 10.0625 22.0625 10.0625C19.625 10.0625 16.4206 11.4755 16.2344 16.6562C15.5781 21.1562 11.4844 22.4531 9.08882 23.47C8.29585 23.8066 6.93265 24.4375 6.14062 24.4375C5.67188 24.4375 5.3525 24.1306 4.8125 24.1406C2.875 24.1406 2.04688 25.9375 2.04688 27.2188C2.04688 28.5 2.91792 29.9238 4.91883 29.9238C6.29897 29.9238 22.7866 29.9238 25.7975 29.9238C28.8084 29.9238 30.3656 27.4548 29.7475 24.7238Z" fill="#573739"/>
<path d="M2.26233 26.0312H4.98435V24.1481C4.92943 24.1423 4.87231 24.1395 4.81248 24.1406C3.43644 24.1406 2.61998 25.047 2.26233 26.0312Z" fill="#FEEFC2"/>
<path d="M23.3125 23C21.5625 23 21.0729 21.125 20.9688 20C20.9688 19.5625 20.7 18.9688 20 18.9688C19.3 18.9688 19.0469 19.4531 19.0469 19.8906C19.0469 21.4844 19.8437 24 23.3125 24C24.9219 24 25.8906 23.1719 26.0625 22.1875C25.7656 22.4844 25.0625 23 23.3125 23Z" fill="#341A1C"/>
<path d="M28.55 28.9844H2.67365C3.13927 29.5366 3.87544 29.9238 4.91884 29.9238H25.7975C26.9358 29.9238 27.8663 29.5709 28.55 28.9844Z" fill="#341A1C"/>
</svg>

<svg xmlns="http://www.w3.org/2000/svg" width="32" height="32" fill="none"><path fill="#573739" d="M29.747 24.724c-.618-2.731-1.462-2.726-1.669-6.365-.207-3.638-.672-8.297-6.015-8.297-2.438 0-5.642 1.414-5.829 6.594-.656 4.5-4.75 5.797-7.145 6.814-.793.337-2.156.968-2.948.968-.47 0-.788-.307-1.329-.297-1.937 0-2.765 1.797-2.765 3.078s.87 2.705 2.872 2.705h20.878c3.011 0 4.569-2.47 3.95-5.2Z"/><path fill="#FEEFC2" d="M2.262 26.031h2.722v-1.883a1.389 1.389 0 0 0-.172-.007c-1.376 0-2.192.906-2.55 1.89Z"/><path fill="#341A1C" d="M23.313 23c-1.75 0-2.24-1.875-2.344-3 0-.438-.269-1.031-.969-1.031s-.953.484-.953.922c0 1.593.797 4.109 4.265 4.109 1.61 0 2.579-.828 2.75-1.813-.296.297-1 .813-2.75.813ZM28.55 28.984H2.674c.465.553 1.201.94 2.245.94h20.879c1.138 0 2.068-.353 2.752-.94Z"/></svg>
